src/assets/imgs/platform-3.svg

<svg width="72" height="62" viewBox="0 0 72 62" fill="none" xmlns="http://www.w3.org/2000/svg">
<path d="M66.8433 32.4969C66.8279 32.4819 66.8124 32.4726 66.8021 32.4575C65.4455 31.0196 63.3411 30.3814 59.9795 30.3814C58.7704 30.3814 57.1359 30.4647 55.5323 30.6366L55.5563 3.85263C55.5563 1.75695 53.8378 0.0537109 51.7248 0.0537109H4.46723C2.35252 0.0537109 0.63916 1.7571 0.63916 3.85263V50.6867C0.63916 52.7875 2.35252 54.4852 4.46723 54.4852H17.1537C17.4059 54.8682 17.6683 55.2512 17.9667 55.6093C21.3128 59.6441 27.1664 61.6956 35.368 61.6956C41.6161 61.6956 48.0751 60.5474 52.3525 59.7862L53.9184 59.5115C59.1134 58.6184 61.945 57.4844 63.7133 55.6193C64.4748 55.3347 65.4558 54.8295 65.8417 54.0532C66.0406 53.6366 66.0698 53.1801 65.9103 52.7576C65.7816 52.4194 65.5553 52.1493 65.2723 51.9282C65.4747 51.6487 65.6444 51.3689 65.7919 51.084C66.4111 50.7798 67.0508 50.3424 67.3372 49.7538C67.5448 49.3412 67.5654 48.8805 67.4059 48.4579C67.2378 48.0212 66.9068 47.6973 66.5003 47.4469C66.4849 47.1817 66.466 46.9215 66.4317 46.6663C66.5243 46.5243 66.61 46.3818 66.6941 46.2391C67.6391 45.9105 69.0215 45.2723 69.5257 44.2367C69.7744 43.7363 69.8035 43.1765 69.6063 42.666C69.2684 41.7581 68.3474 41.2377 67.3767 40.9287C67.4024 40.811 67.447 40.698 67.5448 40.6001C67.7592 40.2073 68.0593 39.7994 68.3131 39.3582C69.4571 38.9309 70.9767 38.1701 71.5564 36.9876C71.8582 36.3737 71.8925 35.6865 71.6558 35.0584C70.9818 33.277 68.5018 32.6933 66.8433 32.4969ZM65.8365 39.3094L59.9692 40.1733L65.5999 40.7916C66.0406 42.1316 66.4077 44.6399 64.0889 46.7891C64.0889 46.7891 64.1146 46.8483 64.154 46.9462L59.5233 47.5553L64.4267 48.0264C64.5451 48.792 64.5142 49.7979 63.9396 50.7402L60.0824 51.8546L63.2073 51.7713C63.1987 52.3753 62.6087 54.9418 53.6302 56.4883C43.3997 58.2499 14.708 64.425 19.1552 42.1563C23.6008 19.8876 47.6292 10.189 52.5206 10.189V31.6281C49.8674 32.0452 47.516 32.5017 45.4441 32.9585C43.1528 32.6489 37.6902 32.0404 34.838 32.8995L41.3399 33.9743C35.4863 35.5649 32.9463 36.9785 32.9463 36.9785C39.75 35.0252 47.3959 33.8567 50.9461 33.3758C56.9833 32.713 63.6429 33.1403 64.9756 34.5491C67.2532 36.9586 66.526 38.5385 65.8365 39.3094Z" fill="#8A8A8E"/>
</svg>

<svg width="72" height="62" fill="none" xmlns="http://www.w3.org/2000/svg"><path d="M66.843 32.497c-.015-.015-.03-.024-.04-.04-1.358-1.437-3.462-2.076-6.823-2.076-1.21 0-2.844.084-4.448.256l.024-26.784c0-2.096-1.718-3.8-3.831-3.8H4.467C2.353.054.64 1.758.64 3.854v46.834c0 2.1 1.714 3.798 3.828 3.798h12.687c.252.383.514.766.813 1.124 3.346 4.035 9.2 6.087 17.401 6.087 6.248 0 12.707-1.149 16.984-1.91l1.566-.275c5.195-.893 8.027-2.027 9.795-3.892.762-.284 1.743-.79 2.129-1.566.199-.416.228-.873.068-1.295a1.92 1.92 0 0 0-.638-.83c.203-.28.372-.56.52-.844.62-.304 1.259-.742 1.545-1.33.208-.413.228-.873.069-1.296-.168-.437-.5-.76-.906-1.011a10.391 10.391 0 0 0-.068-.78c.092-.143.178-.285.262-.428.945-.328 2.328-.967 2.832-2.002.248-.5.278-1.06.08-1.571-.338-.908-1.259-1.428-2.23-1.737a.633.633 0 0 1 .169-.329c.214-.393.514-.8.768-1.242 1.144-.427 2.664-1.188 3.243-2.37a2.41 2.41 0 0 0 .1-1.93c-.674-1.781-3.154-2.365-4.813-2.561zm-1.007 6.812-5.867.864 5.63.619c.442 1.34.809 3.848-1.51 5.997 0 0 .026.06.065.157l-4.63.61 4.903.47c.118.766.087 1.772-.487 2.714l-3.858 1.115 3.125-.084c-.008.604-.598 3.17-9.577 4.717-10.23 1.762-38.922 7.937-34.475-14.332C23.601 19.888 47.63 10.19 52.521 10.19v21.44c-2.654.416-5.005.873-7.077 1.33-2.291-.31-7.754-.919-10.606-.06l6.502 1.075c-5.854 1.59-8.394 3.005-8.394 3.005 6.804-1.954 14.45-3.122 18-3.603 6.037-.663 12.697-.236 14.03 1.173 2.277 2.41 1.55 3.99.86 4.76z" fill="#8A8A8E"/></svg>
